!!!id: EG008
!!!page: 24-25
!!!COM: Anonymous
!!!LYR: Anonymous
!!!PTL@@FR: Chansons Populaires du Canada
!!!OTL@@FR: À Saint-Malo, beau port de mer
!!!PUB: G. E. Desbarats
!!!YEM:
!!!PDT: 1865
!!!SMA:
!!!OMD:
!!!AGN-Laforte:
!!!AGN-type:
!!!AGN-rime:
**kern
*clefG2
*k[f#]
*G:
*M2/4
*
*
=1
8g
16g
16g
8g
8b/
=2
8g
8b/
4a
=3
8g
16g
16g
8g
8b/
!!LO:PB:g=original
=4
8g
8b/
4a
=5
8a
16b/
16cc/
8dd
8dd
=6
8dd
8dd
8b/
16g
16a
!!LO:PB:g=original
=7
8b
8b
8b
16a
16g
=8
8a
16a
16b/
8a
16g
16a
!!LO:PB:g=original
=9
8.b/
16b/
8b/
8dd
=10
(8bL
8aJ)
8g
8r
==||
*
*
==|
